src/16/actions/align-horizontal-right.svg

<svg xmlns="http://www.w3.org/2000/svg" width="16" height="16"><defs><style id="current-color-scheme" type="text/css"></style></defs><path d="M12 1v1H2v4h10v4H2v4h10v1h2V1h-2z" fill="currentColor" color="#565656"/></svg>

<svg xmlns="http://www.w3.org/2000/svg" width="16" height="16" viewBox="0 0 16 16">
 <defs>
  <style id="current-color-scheme" type="text/css">
   .ColorScheme-Text { color:#565656; } .ColorScheme-Highlight { color:#5294e2; }
  </style>
 </defs>
 <path style="fill:currentColor" class="ColorScheme-Text" d="M 12 1 L 12 2 L 2 2 L 2 6 L 12 6 L 12 10 L 2 10 L 2 14 L 12 14 L 12 15 L 14 15 L 14 1 L 12 1 z"/>
</svg>
